X: 17
T: Coleraine, The
Z: R K
S: https://thesession.org/tunes/17#setting54333
R: jig
M: 6/8
L: 1/8
K: Amin
z A |: "Am"EAA ABc | "Em"Bee e2 d | "Am"cBA ABc | "Em"BGE E2 D | "Am"EAA ABc |
"Em"Bee e2 d | "Am"cBA "Em" ^GAB |1 "Am"cAA A2 A:|2 "Am"cAA A2 B |: "C"c2 c cBA | "G"GBd g2 ^g |
"Am"aed cBA | "Em"^GAB E^F^G | "Am"A^GA "AmB"BAB |
"C"cde "Dm"fed | "Am"cBA "Em"^GAB |1 "Am"cAA A2 B :|2 "Am" cAA A3||

%-------------------- TUNE SEPARATOR --------------------%

